X: 35857
T: Samurai, The
R: reel
M: 4/4
K: Dmajor
FAde fdAG|FAde dAAG|FAde fdAF|GBEG BGAG|
FAde fdAG|FAde dAAG|FAde fdAF|GABc defg|
a/ a/ a ge aege|dA A/ A/ A defg|afge fdec|dBAF GBdg|
a/ a/ a ge aege|dA A/ A/ A defg|afge dBAF|GBEG BEAG|

